src/assets/logo_small.svg

<?xml version="1.0" encoding="UTF-8" standalone="no"?>
<svg
   width="383.28827"
   height="273.17383"
   viewBox="0 0 383.28827 273.17383"
   version="1.1"
   xml:space="preserve"
   style="clip-rule:evenodd;fill-rule:evenodd;stroke-linecap:round;stroke-linejoin:round;stroke-miterlimit:1.5"
   id="svg16"
   sodipodi:docname="logo_small.svg"
   inkscape:version="1.2.2 (b0a8486541, 2022-12-01)"
   xmlns:inkscape="http://www.inkscape.org/namespaces/inkscape"
   xmlns:sodipodi="http://sodipodi.sourceforge.net/DTD/sodipodi-0.dtd"
   xmlns="http://www.w3.org/2000/svg"
   xmlns:svg="http://www.w3.org/2000/svg"
   xmlns:serif="http://www.serif.com/"><defs
   id="defs20" /><sodipodi:namedview
   id="namedview18"
   pagecolor="#ffffff"
   bordercolor="#000000"
   borderopacity="0.25"
   inkscape:showpageshadow="2"
   inkscape:pageopacity="0.0"
   inkscape:pagecheckerboard="0"
   inkscape:deskcolor="#d1d1d1"
   showgrid="false"
   inkscape:zoom="1.0460922"
   inkscape:cx="192.62165"
   inkscape:cy="243.76437"
   inkscape:window-width="1366"
   inkscape:window-height="696"
   inkscape:window-x="0"
   inkscape:window-y="0"
   inkscape:window-maximized="1"
   inkscape:current-layer="svg16" />
    <g
   id="M--Farbe-"
   serif:id="M (Farbe)"
   transform="matrix(1.91092,0,0,1.91092,-754.31668,-192.56174)">
        <g
   id="R"
   transform="matrix(-1,0,0,1,990.058,-0.439674)">
            <path
   id="left-bottom"
   serif:id="left bottom"
   d="m 496.02,224.138 c -32.002,-15.739 -61.374,-11.041 -88.498,11.115 37.762,12.629 66.868,8.146 88.498,-11.115 z"
   style="fill:none;stroke:#697d65;stroke-width:2.77px" />
            <path
   id="left-middle"
   serif:id="left middle"
   d="m 496.02,224.138 c -10.361,-43.708 -43.761,-67.021 -99.895,-70.208 17.938,48.82 50.441,73.539 99.895,70.208 z"
   style="fill:none;stroke:#697d65;stroke-width:2.77px" />
            <g
   id="L-U"
   serif:id="L U">
                <path
   id="L-U1"
   serif:id="L U"
   d="m 473.085,160.746 c -7.08,-11.857 -14.312,-24.073 -30.637,-26.699"
   style="fill:none;stroke:#697d65;stroke-width:2.77px" />
                <path
   id="left-up"
   serif:id="left up"
   d="m 442.421,162.461 c -3.135,-13.081 -0.625,-18.444 -0.423,-28.234"
   style="fill:none;stroke:#697d65;stroke-width:2.77px" />
            </g>
        </g>
        <g
   id="L">
            <path
   id="left-bottom1"
   serif:id="left bottom"
   d="m 496.02,224.138 c -32.002,-15.739 -61.374,-11.041 -88.498,11.115 37.762,12.629 66.868,8.146 88.498,-11.115 z"
   style="fill:none;stroke:#697d65;stroke-width:2.77px" />
            <path
   id="left-middle1"
   serif:id="left middle"
   d="m 496.02,224.138 c -10.361,-43.708 -43.761,-67.021 -99.895,-70.208 17.938,48.82 50.441,73.539 99.895,70.208 z"
   style="fill:none;stroke:#697d65;stroke-width:2.77px" />
            <g
   id="L-U2"
   serif:id="L U">
                <path
   id="L-U3"
   serif:id="L U"
   d="M 473.626,161.556 C 463.303,148.799 450.579,140.095 434.254,137.468"
   style="fill:none;stroke:#697d65;stroke-width:2.77px" />
                <path
   id="left-up1"
   serif:id="left up"
   d="m 436.298,160.66 c -2.055,-4.526 -2.246,-13.401 -2.044,-23.192"
   style="fill:none;stroke:#697d65;stroke-width:2.77px" />
            </g>
        </g>
        <path
   id="middle"
   d="m 496.02,224.138 c -30.788,-30.051 -30.274,-70.923 -0.282,-121.984 27.226,43.695 30.085,84.666 0.282,121.984 z"
   style="fill:none;stroke:#697d65;stroke-width:2.77px" />
    </g>
</svg>

<?xml version="1.0" encoding="UTF-8" standalone="no"?>
<!DOCTYPE svg PUBLIC "-//W3C//DTD SVG 1.1//EN" "http://www.w3.org/Graphics/SVG/1.1/DTD/svg11.dtd">
<svg width="100%" height="100%" viewBox="0 0 1005 499" version="1.1" xmlns="http://www.w3.org/2000/svg" xmlns:xlink="http://www.w3.org/1999/xlink" xml:space="preserve" xmlns:serif="http://www.serif.com/" style="fill-rule:evenodd;clip-rule:evenodd;stroke-linecap:round;stroke-linejoin:round;stroke-miterlimit:1.5;">
    <g id="M--Farbe-" serif:id="M (Farbe)" transform="matrix(1.91092,0,0,1.91092,-443.497,-186.879)">
        <g id="R" transform="matrix(-1,0,0,1,990.058,-0.439674)">
            <path id="left-bottom" serif:id="left bottom" d="M496.02,224.138C464.018,208.399 434.646,213.097 407.522,235.253C445.284,247.882 474.39,243.399 496.02,224.138Z" style="fill:none;stroke:rgb(105,125,101);stroke-width:2.77px;"/>
            <path id="left-middle" serif:id="left middle" d="M496.02,224.138C485.659,180.43 452.259,157.117 396.125,153.93C414.063,202.75 446.566,227.469 496.02,224.138Z" style="fill:none;stroke:rgb(105,125,101);stroke-width:2.77px;"/>
            <g id="L-U" serif:id="L U">
                <path id="L-U1" serif:id="L U" d="M473.085,160.746C466.005,148.889 458.773,136.673 442.448,134.047" style="fill:none;stroke:rgb(105,125,101);stroke-width:2.77px;"/>
                <path id="left-up" serif:id="left up" d="M442.421,162.461C439.286,149.38 441.796,144.017 441.998,134.227" style="fill:none;stroke:rgb(105,125,101);stroke-width:2.77px;"/>
            </g>
        </g>
        <g id="L">
            <path id="left-bottom1" serif:id="left bottom" d="M496.02,224.138C464.018,208.399 434.646,213.097 407.522,235.253C445.284,247.882 474.39,243.399 496.02,224.138Z" style="fill:none;stroke:rgb(105,125,101);stroke-width:2.77px;"/>
            <path id="left-middle1" serif:id="left middle" d="M496.02,224.138C485.659,180.43 452.259,157.117 396.125,153.93C414.063,202.75 446.566,227.469 496.02,224.138Z" style="fill:none;stroke:rgb(105,125,101);stroke-width:2.77px;"/>
            <g id="L-U2" serif:id="L U">
                <path id="L-U3" serif:id="L U" d="M473.626,161.556C463.303,148.799 450.579,140.095 434.254,137.468" style="fill:none;stroke:rgb(105,125,101);stroke-width:2.77px;"/>
                <path id="left-up1" serif:id="left up" d="M436.298,160.66C434.243,156.134 434.052,147.259 434.254,137.468" style="fill:none;stroke:rgb(105,125,101);stroke-width:2.77px;"/>
            </g>
        </g>
        <path id="middle" d="M496.02,224.138C465.232,194.087 465.746,153.215 495.738,102.154C522.964,145.849 525.823,186.82 496.02,224.138Z" style="fill:none;stroke:rgb(105,125,101);stroke-width:2.77px;"/>
    </g>
</svg>
